docs/img/bx-mouse.svg

<svg width="30" height="30" viewBox="0 0 30 30" fill="none" xmlns="http://www.w3.org/2000/svg">
<path d="M14.9688 27.5H15C19.8238 27.5 23.75 23.575 23.75 18.75V11.25C23.75 6.44875 19.8413 2.5325 15.0238 2.5H14.9487C10.1487 2.5275 6.25 6.44625 6.25 11.25V18.75C6.25 23.575 10.1613 27.5 14.9688 27.5ZM7.75 11.25C7.7523 9.59635 8.83245 7.17107 10 6C11.1676 4.82893 13.3276 4.00726 14.9812 4C18.4375 4.0075 22.25 7.81125 22.25 11.25V18.75C22.25 22.1962 18.4462 26 15 26H14.9688C11.4825 26 7.75 22.255 7.75 18.75V11.25Z" fill="#656566"/>
<path d="M13.75 11H16.25V18.5H13.75V11Z" fill="#E4E5EA"/>
</svg>

<svg width="30" height="30" fill="none" xmlns="http://www.w3.org/2000/svg"><path d="M14.969 27.5H15c4.824 0 8.75-3.925 8.75-8.75v-7.5c0-4.801-3.909-8.717-8.726-8.75h-.075c-4.8.027-8.699 3.946-8.699 8.75v7.5c0 4.825 3.911 8.75 8.719 8.75zM7.75 11.25C7.752 9.596 8.832 7.171 10 6c1.168-1.171 3.328-1.993 4.981-2 3.457.008 7.269 3.811 7.269 7.25v7.5c0 3.446-3.804 7.25-7.25 7.25h-.031c-3.486 0-7.219-3.745-7.219-7.25v-7.5z" fill="#656566"/><path d="M13.75 11h2.5v7.5h-2.5V11z" fill="#E4E5EA"/></svg>
